build/images/icon-popular.svg

<svg width="39" height="52" viewBox="0 0 39 52" fill="none" xmlns="http://www.w3.org/2000/svg">
<path opacity="0.2" d="M38.8889 30.4453C38.2932 22.6901 34.6825 17.8302 31.4971 13.5416C28.5475 9.57134 26 6.1428 26 1.08519C26 0.678939 25.7725 0.307626 25.4118 0.121462C25.0499 -0.0658189 24.6151 -0.0351471 24.2861 0.203931C19.5021 3.6272 15.5105 9.39686 14.1162 14.9019C13.1482 18.7346 13.0201 23.0433 13.0021 25.889C8.58416 24.9454 7.58337 18.3369 7.5728 18.2649C7.52304 17.9221 7.31362 17.6238 7.00893 17.4609C6.70109 17.3001 6.33923 17.2885 6.02713 17.4429C5.79546 17.5551 0.34064 20.3267 0.0232574 31.3931C0.00101525 31.7612 0 32.1305 0 32.4997C0 43.2508 8.74809 51.9983 19.5 51.9983C19.5148 51.9994 19.5307 52.0015 19.5434 51.9983C19.5476 51.9983 19.5518 51.9983 19.5571 51.9983C30.2826 51.9676 39 43.2318 39 32.4997C39 31.9591 38.8889 30.4453 38.8889 30.4453ZM19.5 49.8318C15.9157 49.8318 13 46.7259 13 42.9081C13 42.778 12.999 42.6468 13.0084 42.486C13.0518 40.8759 13.3576 39.7768 13.693 39.0458C14.3214 40.3956 15.4449 41.6365 17.2699 41.6365C17.8687 41.6365 18.3533 41.152 18.3533 40.5533C18.3533 39.0109 18.385 37.2316 18.7691 35.6257C19.1108 34.2018 19.9275 32.6869 20.9622 31.4725C21.4224 33.0487 22.3196 34.3244 23.1956 35.5696C24.4492 37.351 25.7452 39.1928 25.9727 42.3337C25.9864 42.5198 26.0002 42.7071 26.0002 42.9081C26 46.7258 23.0843 49.8318 19.5 49.8318Z" fill="black"/>
</svg>

<svg width="39" height="52" fill="none" xmlns="http://www.w3.org/2000/svg"><path opacity=".2" d="M38.889 30.445c-.596-7.755-4.207-12.615-7.392-16.903C28.547 9.572 26 6.142 26 1.085a1.085 1.085 0 00-1.714-.881c-4.784 3.423-8.776 9.193-10.17 14.698-.968 3.833-1.096 8.141-1.114 10.987-4.418-.944-5.419-7.552-5.43-7.624a1.089 1.089 0 00-.563-.804 1.079 1.079 0 00-.982-.018c-.232.112-5.686 2.884-6.004 13.95A18.35 18.35 0 000 32.5c0 10.75 8.748 19.498 19.5 19.498.015.001.03.004.043 0h.014C30.283 51.968 39 43.232 39 32.5c0-.54-.111-2.055-.111-2.055zM19.5 49.832c-3.584 0-6.5-3.106-6.5-6.924 0-.13-.001-.261.008-.422.044-1.61.35-2.71.685-3.44.628 1.35 1.752 2.59 3.577 2.59.599 0 1.083-.484 1.083-1.083 0-1.542.032-3.321.416-4.927.342-1.424 1.159-2.94 2.193-4.153.46 1.576 1.358 2.851 2.234 4.097 1.253 1.781 2.55 3.623 2.777 6.764.013.186.027.373.027.574 0 3.818-2.916 6.924-6.5 6.924z" fill="#000"/></svg>
